X:127
T:And a begging we will go
Z:Jack Campin - http://www.campin.me.uk
S:Blaikie MS (NLS MS.1578) p37, Blaikie #121
M:2/4
L:1/16
V:1 midi program 1 74
V:2 midi program 1 46 bass middle = d transpose -24
Q:1/4=72
K:C
[V:1] G2|cGGF E2DE|CDEF G3`G|Gccc c3`c|defd e2
[V:2] z2|C2c2 C2c2|e2c2 g2f2|e2c2 e2c2|B2G2`c2
%
[V:1] dc|d3`c dcBA|cBAG F2ED|E2G2 A2cB|c6   |]
[V:2] z2|G2g2 G2B2|c2c2 f2f2|g2g2 G2G2|c6   |]
W:Transcription (c) Jack Campin 2009, no mirroring or republication without permission

